img/label_5.svg

<svg width="95" height="25" viewBox="0 0 95 25" fill="none" xmlns="http://www.w3.org/2000/svg">
<path fill-rule="evenodd" clip-rule="evenodd" d="M30.9458 19.6588L32.1203 16.9338C33.3883 17.8768 35.0725 18.3717 36.7419 18.3717C37.9674 18.3717 38.7447 17.9002 38.7447 17.1781C38.7256 15.171 31.3812 16.7406 31.3239 11.7091C31.3048 9.14975 33.5773 7.18302 36.7929 7.18302C38.7065 7.18302 40.6223 7.65453 41.9794 8.73347L40.8856 11.5158C39.6368 10.7193 38.0842 10.148 36.6039 10.148C35.6056 10.148 34.9409 10.6259 34.9409 11.2333C34.96 13.2 42.3617 12.1253 42.4382 16.9338C42.4382 19.5462 40.2209 21.3791 37.0435 21.3791C34.7136 21.3791 32.5727 20.8333 30.9479 19.6588H30.9458ZM75.9936 15.9483C75.6253 16.5992 75.052 17.1097 74.363 17.4004C73.674 17.691 72.9082 17.7454 72.1851 17.555C71.4619 17.3646 70.8222 16.9401 70.3657 16.3479C69.9092 15.7556 69.6616 15.0289 69.6616 14.2811C69.6616 13.5333 69.9092 12.8066 70.3657 12.2143C70.8222 11.6221 71.4619 11.1976 72.1851 11.0072C72.9082 10.8168 73.674 10.8711 74.363 11.1618C75.052 11.4524 75.6253 11.963 75.9936 12.6138L79.2325 10.8128C78.4653 9.43958 77.2642 8.35974 75.8174 7.74247C74.3706 7.12519 72.7599 7.00537 71.2377 7.40176C69.7155 7.79816 68.3679 8.68839 67.4059 9.93292C66.4439 11.1775 65.9221 12.706 65.9221 14.279C65.9221 15.8519 66.4439 17.3805 67.4059 18.625C68.3679 19.8695 69.7155 20.7598 71.2377 21.1562C72.7599 21.5525 74.3706 21.4327 75.8174 20.8154C77.2642 20.1982 78.4653 19.1183 79.2325 17.7452L75.9936 15.9483ZM44.063 1.28922H48.1196V21.1158H44.063V1.28922ZM80.8212 1.28922V21.1158H84.8778V15.1752L89.6863 21.1158H94.8729L88.7561 14.0538L94.4163 7.4655H89.4548L84.8715 12.9345V1.28922H80.8212ZM60.16 15.9866C59.8162 16.5087 59.3469 16.9362 58.7952 17.2301C58.2435 17.524 57.6268 17.6748 57.0017 17.6687C56.1033 17.6687 55.2416 17.3118 54.6063 16.6765C53.971 16.0412 53.6141 15.1795 53.6141 14.2811C53.6141 13.3826 53.971 12.521 54.6063 11.8857C55.2416 11.2504 56.1033 10.8935 57.0017 10.8935C58.3653 10.8935 59.5759 11.6475 60.16 12.6351V15.9866ZM60.16 7.4655V9.07329C59.5016 7.95612 57.8513 7.17878 56.1288 7.17878C52.5692 7.17878 49.7635 10.3221 49.7635 14.2598C49.7635 18.2018 52.5692 21.3791 56.1288 21.3791C57.8492 21.3791 59.5016 20.606 60.16 19.4889V21.0924H64.2166V7.4655H60.16ZM5.89022 15.9675C5.89022 16.462 5.74356 16.9454 5.46878 17.3565C5.194 17.7676 4.80346 18.0881 4.34655 18.2772C3.88964 18.4663 3.3869 18.5157 2.90193 18.4191C2.41695 18.3225 1.97153 18.0842 1.62201 17.7343C1.27249 17.3845 1.03457 16.9389 0.938356 16.4538C0.842139 15.9688 0.891947 15.4661 1.08148 15.0093C1.27101 14.5526 1.59175 14.1623 2.00312 13.8879C2.41449 13.6135 2.89802 13.4672 3.39253 13.4676H5.89022V15.9675ZM7.1412 15.9675C7.13145 15.6332 7.18887 15.3004 7.31006 14.9887C7.43125 14.677 7.61375 14.3928 7.84674 14.1529C8.07974 13.913 8.3585 13.7223 8.66651 13.5921C8.97453 13.4619 9.30555 13.3948 9.63996 13.3948C9.97437 13.3948 10.3054 13.4619 10.6134 13.5921C10.9214 13.7223 11.2002 13.913 11.4332 14.1529C11.6662 14.3928 11.8487 14.677 11.9699 14.9887C12.0911 15.3004 12.1485 15.6332 12.1387 15.9675V22.2138C12.1198 22.8639 11.8482 23.4811 11.3817 23.9342C10.9151 24.3873 10.2903 24.6408 9.63996 24.6408C8.98958 24.6408 8.36481 24.3873 7.89827 23.9342C7.43173 23.4811 7.16015 22.8639 7.1412 22.2138V15.9675ZM9.64102 5.9278C9.1466 5.92738 8.66341 5.78036 8.25255 5.50533C7.84169 5.23029 7.52162 4.8396 7.3328 4.38266C7.14398 3.92572 7.0949 3.42304 7.19177 2.93821C7.28864 2.45337 7.5271 2.00815 7.87701 1.65884C8.22691 1.30953 8.67254 1.07182 9.15754 0.975776C9.64254 0.879732 10.1451 0.929664 10.6018 1.11926C11.0584 1.30885 11.4485 1.62959 11.7229 2.04092C11.9972 2.45225 12.1434 2.93569 12.143 3.4301V5.9278H9.64315H9.64102ZM9.64102 7.20214C9.97529 7.19239 10.3081 7.24981 10.6198 7.371C10.9315 7.49219 11.2157 7.67469 11.4556 7.90768C11.6955 8.14068 11.8862 8.41944 12.0164 8.72746C12.1466 9.03547 12.2137 9.36649 12.2137 9.7009C12.2137 10.0353 12.1466 10.3663 12.0164 10.6743C11.8862 10.9824 11.6955 11.2611 11.4556 11.4941C11.2157 11.7271 10.9315 11.9096 10.6198 12.0308C10.3081 12.152 9.97529 12.2094 9.64102 12.1997H3.37553C3.04126 12.2094 2.70843 12.152 2.39675 12.0308C2.08507 11.9096 1.80087 11.7271 1.56098 11.4941C1.3211 11.2611 1.1304 10.9824 1.00018 10.6743C0.869954 10.3663 0.802856 10.0353 0.802856 9.7009C0.802856 9.36649 0.869954 9.03547 1.00018 8.72746C1.1304 8.41944 1.3211 8.14068 1.56098 7.90768C1.80087 7.67469 2.08507 7.49219 2.39675 7.371C2.70843 7.24981 3.04126 7.19239 3.37553 7.20214H9.64102ZM19.6573 9.69984C19.6573 9.20533 19.804 8.72193 20.0788 8.31079C20.3535 7.89965 20.7441 7.57924 21.201 7.3901C21.6579 7.20096 22.1606 7.15158 22.6456 7.24821C23.1306 7.34483 23.576 7.58313 23.9255 7.93295C24.2751 8.28277 24.513 8.72839 24.6092 9.21345C24.7054 9.69851 24.6556 10.2012 24.4661 10.6579C24.2765 11.1147 23.9558 11.505 23.5444 11.7794C23.133 12.0538 22.6495 12.2001 22.155 12.1997H19.6594V9.69984H19.6573ZM18.4063 9.69984C18.4161 10.0341 18.3587 10.3669 18.2375 10.6786C18.1163 10.9903 17.9338 11.2745 17.7008 11.5144C17.4678 11.7543 17.189 11.945 16.881 12.0752C16.573 12.2054 16.242 12.2725 15.9076 12.2725C15.5732 12.2725 15.2422 12.2054 14.9341 12.0752C14.6261 11.945 14.3474 11.7543 14.1144 11.5144C13.8814 11.2745 13.6989 10.9903 13.5777 10.6786C13.4565 10.3669 13.3991 10.0341 13.4088 9.69984V3.4301C13.3991 3.09583 13.4565 2.763 13.5777 2.45132C13.6989 2.13964 13.8814 1.85544 14.1144 1.61555C14.3474 1.37566 14.6261 1.18496 14.9341 1.05474C15.2422 0.92452 15.5732 0.857422 15.9076 0.857422C16.242 0.857422 16.573 0.92452 16.881 1.05474C17.189 1.18496 17.4678 1.37566 17.7008 1.61555C17.9338 1.85544 18.1163 2.13964 18.2375 2.45132C18.3587 2.763 18.4161 3.09583 18.4063 3.4301V9.69984ZM15.9108 19.7161C16.4053 19.7161 16.8887 19.8628 17.2998 20.1376C17.711 20.4124 18.0314 20.8029 18.2205 21.2598C18.4096 21.7167 18.459 22.2195 18.3624 22.7044C18.2658 23.1894 18.0275 23.6348 17.6777 23.9843C17.3278 24.3339 16.8822 24.5718 16.3972 24.668C15.9121 24.7642 15.4094 24.7144 14.9527 24.5249C14.4959 24.3353 14.1056 24.0146 13.8312 23.6032C13.5568 23.1919 13.4105 22.7083 13.4109 22.2138V19.7161H15.9108ZM15.9108 18.4652C15.5765 18.4749 15.2437 18.4175 14.932 18.2963C14.6203 18.1751 14.3361 17.9926 14.0962 17.7596C13.8563 17.5266 13.6656 17.2479 13.5354 16.9398C13.4052 16.6318 13.3381 16.3008 13.3381 15.9664C13.3381 15.632 13.4052 15.301 13.5354 14.993C13.6656 14.6849 13.8563 14.4062 14.0962 14.1732C14.3361 13.9402 14.6203 13.7577 14.932 13.6365C15.2437 13.5153 15.5765 13.4579 15.9108 13.4676H22.1805C22.8306 13.4866 23.4477 13.7582 23.9009 14.2247C24.354 14.6912 24.6075 15.316 24.6075 15.9664C24.6075 16.6168 24.354 17.2415 23.9009 17.7081C23.4477 18.1746 22.8306 18.4462 22.1805 18.4652H15.9108Z" fill="#6D7D93"/>
</svg>

<svg width="95" height="25" fill="none" xmlns="http://www.w3.org/2000/svg"><path fill-rule="evenodd" clip-rule="evenodd" d="m30.946 19.659 1.174-2.725c1.268.943 2.953 1.438 4.622 1.438 1.225 0 2.003-.472 2.003-1.194-.02-2.007-7.364-.437-7.421-5.469-.02-2.56 2.253-4.526 5.469-4.526 1.913 0 3.83.472 5.186 1.55l-1.093 2.783c-1.25-.797-2.802-1.368-4.282-1.368-.998 0-1.663.478-1.663 1.085.019 1.967 7.42.892 7.497 5.7 0 2.613-2.217 4.446-5.395 4.446-2.33 0-4.47-.546-6.095-1.72h-.002Zm45.048-3.71a3.386 3.386 0 1 1 0-3.335l3.239-1.801a7.106 7.106 0 1 0 0 6.932l-3.24-1.797ZM44.063 1.288h4.057v19.827h-4.057V1.289Zm36.758 0v19.827h4.057v-5.94l4.808 5.94h5.187l-6.117-7.062 5.66-6.589h-4.961l-4.584 5.47V1.288h-4.05ZM60.16 15.987a3.739 3.739 0 0 1-3.158 1.682 3.388 3.388 0 0 1 0-6.776c1.363 0 2.574.755 3.158 1.742v3.352Zm0-8.522v1.608c-.658-1.117-2.309-1.894-4.031-1.894-3.56 0-6.365 3.143-6.365 7.08 0 3.943 2.805 7.12 6.365 7.12 1.72 0 3.373-.773 4.031-1.89v1.603h4.057V7.465H60.16ZM5.89 15.967a2.5 2.5 0 1 1-2.497-2.5H5.89v2.5Zm1.251 0a2.5 2.5 0 1 1 4.998 0v6.247a2.5 2.5 0 0 1-4.998 0v-6.246Zm2.5-10.04a2.5 2.5 0 1 1 2.502-2.497v2.498H9.641Zm0 1.275a2.5 2.5 0 1 1 0 4.998H3.376a2.5 2.5 0 1 1 0-4.998H9.64ZM19.657 9.7a2.5 2.5 0 1 1 2.498 2.5h-2.496V9.7h-.002Zm-1.25 0a2.499 2.499 0 1 1-4.998 0V3.43a2.5 2.5 0 1 1 4.997 0V9.7ZM15.91 19.716a2.5 2.5 0 1 1-2.5 2.498v-2.498h2.5Zm0-1.25a2.5 2.5 0 1 1 0-4.998h6.27a2.5 2.5 0 0 1 0 4.997h-6.27Z" fill="#6D7D93"/></svg>
